svgs/sharp-solid/circle-yen.svg

<svg xmlns="http://www.w3.org/2000/svg" viewBox="0 0 512 512"><!--! Font Awesome Pro 6.6.0 by @fontawesome - https://fontawesome.com License - https://fontawesome.com/license (Commercial License) Copyright 2024 Fonticons, Inc. --><path d="M256 512A256 256 0 1 0 256 0a256 256 0 1 0 0 512zM137.5 144l61 0L256 217.2 313.5 144l61 0-11.7 14.8L286.5 256l33.5 0 16 0 0 32-16 0-40 0 0 32 40 0 16 0 0 32-16 0-40 0 0 25 0 24-48 0 0-24 0-25-40 0-16 0 0-32 16 0 40 0 0-32-40 0-16 0 0-32 16 0 33.5 0-76.4-97.2L137.5 144z"/></svg>

<svg xmlns="http://www.w3.org/2000/svg" viewBox="0 0 512 512"><!--! Font Awesome Pro 6.4.2 by @fontawesome - https://fontawesome.com License - https://fontawesome.com/license (Commercial License) Copyright 2023 Fonticons, Inc. --><path d="M256 512A256 256 0 1 0 256 0a256 256 0 1 0 0 512zM137.5 144h61L256 217.2 313.5 144h61l-11.7 14.8L286.5 256H320h16v32H320 280v32h40 16v32H320 280v25 24H232V377 352H192 176V320h16 40V288H192 176V256h16 33.5l-76.4-97.2L137.5 144z"/></svg>
